X:30
T:Bridy McQuinn's Slide
B:Terry "Cuz" Teahan "Sliabh Luachra on Parade" 1980
Z:Patrick Cavanagh
M:12/8
L:1/8
R:Slide
K:D
B | A2d F2A D2F EDE | F2E EDE B2A F2B | 
AdA F2A D2F EDE | F2E EFE D3 D2 :| 
D | F2E EDE B2A F2A | E2E EDE B2A F2B | 
AdA F2A D2F EDE | F2E EFE D3 D2 :|| 

